X:3109
T:Nilus og Hillelil
C:anon.
O:Denmark
Z:Transcribed by Frank Nordberg - http://www.musicaviva.com
F:http://abc.musicaviva.com/tunes/denmark/nilus-og-hillelil.abc
M:4/2 %org.: C|
L:1/2
K:Gdor
BGdd|cBzf|_edBc|d2zc|
w:Det var bol-de Ni-lus han red sig un-der \o *
BGdd|cBzB|GAcB|A2zG|
w:f\aeste han stal-ten Hille-lil hun var s\aa ven en m\o. De
BA/G/FD|G/G/Gdc/A/|BG2|]
